HelpDesk_TicketSystem/ClientApp/src/assets/images/vector-2.svg

<svg width="300" height="274" viewBox="0 0 300 274" fill="none" xmlns="http://www.w3.org/2000/svg">
<g clip-path="url(#clip0_28_584)">
<path d="M241.805 247.905C242.099 248.023 242.418 248.09 242.743 248.104C243.069 248.118 243.394 248.078 243.701 247.986C244.008 247.894 244.29 247.753 244.532 247.569C244.773 247.386 244.97 247.165 245.11 246.917C245.249 246.67 245.33 246.403 245.346 246.13C245.363 245.856 245.315 245.583 245.206 245.325C245.097 245.068 244.928 244.831 244.71 244.628C244.491 244.425 244.227 244.26 243.933 244.143C242.813 243.766 241.245 244.048 240.573 245.177C240.348 246.212 240.797 247.341 241.805 247.999V247.905ZM97.2938 161.364C98.414 161.834 99.9823 161.458 100.654 160.423C101.103 159.482 100.654 158.165 99.4222 157.601C98.302 157.225 96.7337 157.507 96.0615 158.636C95.6134 159.576 96.0615 160.893 97.2938 161.458V161.364ZM197.219 152.427C197.803 152.603 198.444 152.587 199.015 152.384C199.585 152.18 200.044 151.803 200.298 151.328C200.552 150.854 200.584 150.316 200.387 149.822C200.191 149.328 199.779 148.915 199.236 148.665C198.115 148.194 196.547 148.571 195.875 149.605C195.427 150.546 195.875 151.863 197.219 152.427ZM155.658 216.487C156.779 216.863 158.235 216.581 158.907 215.452C159.355 214.512 158.907 213.195 157.675 212.63C156.555 212.254 154.986 212.63 154.314 213.759C153.866 214.7 154.314 215.734 155.658 216.487ZM99.4222 205.481C100.542 205.857 102.111 205.481 102.783 204.446C103.231 203.506 102.783 202.189 101.551 201.624C100.43 201.248 98.8621 201.624 98.19 202.659C97.9659 203.694 98.302 205.011 99.4222 205.481ZM9.91502 130.228C10.5092 130.465 11.1912 130.494 11.811 130.309C12.4307 130.123 12.9375 129.739 13.2197 129.24C13.502 128.741 13.5366 128.168 13.316 127.648C13.0954 127.128 12.6377 126.702 12.0435 126.465C11.4493 126.228 10.7673 126.199 10.1475 126.384C9.52775 126.569 9.02101 126.954 8.73876 127.453C8.45651 127.952 8.42188 128.524 8.64247 129.045C8.86306 129.565 9.32081 129.991 9.91502 130.228V130.228ZM196.547 53.9395C197.667 54.3158 199.236 53.9395 199.908 52.9048C200.356 51.9641 199.908 50.6472 198.564 50.0828C197.443 49.7065 195.987 50.0827 195.315 51.2115C194.867 52.1522 195.539 53.281 196.547 53.9395V53.9395ZM32.0958 88.1798C32.7679 88.462 33.216 88.3679 34.0002 88.0857C34.7843 87.7095 35.2324 87.3332 35.6805 86.5807C37.4729 83.6646 39.3773 81.1248 41.2817 78.1147C41.9539 76.8918 41.7299 75.2926 40.3856 74.8223C39.0413 74.352 37.5849 75.0105 36.8008 76.4215C34.8964 79.3375 33.216 82.0655 31.1996 84.8875L30.9755 85.0756C30.3034 86.3925 30.9755 87.8035 32.0958 88.1798V88.1798Z" fill="#03669A"/>
<path d="M29.0711 80.9366L34.8964 83.1942C35.7926 83.4764 36.6888 83.8526 37.697 84.417L39.8254 85.4518C40.5768 85.6929 41.3237 85.9438 42.0659 86.2043C42.626 86.2043 43.2982 85.9221 43.8583 85.4518C44.4184 84.9814 44.5304 84.5111 44.4184 83.8526C44.4184 83.3823 44.1944 82.912 43.6343 82.4416C43.0741 81.9713 42.402 81.6891 41.8419 81.3128L40.2735 80.6544C39.3773 80.3722 38.5932 79.7137 37.697 79.4315L31.6477 77.1739C30.5274 76.7036 29.0711 77.0798 28.399 78.1146C27.2787 79.0552 27.7268 80.4662 29.0711 80.9366V80.9366ZM22.9098 19.7931C23.2459 19.8872 23.806 19.8872 23.806 19.6991C23.918 19.5109 23.918 19.0406 23.806 18.9465L22.7978 19.0406C22.7978 19.2287 22.7978 19.6991 23.0218 19.7931H22.9098ZM32.5439 41.1463C32.7679 41.2404 33.328 41.2404 33.4401 41.1463C33.4401 40.8641 33.4401 40.3938 33.216 40.2997C32.992 40.2997 32.5439 40.2997 32.4319 40.4878V41.1463H32.5439ZM-28.8453 35.4082C-28.6213 35.5023 -28.0611 35.4082 -27.9491 35.3142L-28.0611 34.5616L-28.9573 34.6557L-28.8453 35.4082ZM-28.1732 62.4995C-27.9491 62.5935 -27.389 62.4995 -27.277 62.4054C-27.277 62.2173 -27.277 61.7469 -27.501 61.6529L-28.2852 61.7469C-28.3972 61.9351 -28.3972 62.4054 -28.2852 62.4995H-28.1732ZM230.602 231.538C232.171 232.196 233.963 231.726 234.635 230.409C235.419 229.092 234.859 227.587 233.291 226.928C231.835 226.364 229.93 226.74 229.258 228.057C228.474 229.374 229.034 230.879 230.602 231.538ZM12.6036 27.5066C13.2757 27.6947 13.9479 27.5066 14.284 26.9422C14.62 26.3778 14.284 25.8134 13.7238 25.6253C13.0517 25.3431 12.3795 25.6253 12.0435 26.0956C11.7074 26.66 12.1555 27.3185 12.6036 27.5066ZM134.934 93.2593C135.494 93.5415 136.054 93.2593 136.502 92.789C136.726 92.2246 136.502 91.6602 135.83 91.378C135.158 91.0958 134.486 91.378 134.262 91.9424C133.926 92.5068 134.262 92.9771 134.822 93.2593H134.934ZM260.401 240.568C261.209 240.882 262.083 241.058 262.973 241.086C263.863 241.114 264.751 240.993 265.585 240.731C266.418 240.468 267.182 240.069 267.83 239.557C268.479 239.044 269 238.429 269.363 237.746C270.931 234.924 269.811 231.632 266.226 230.221C265.425 229.903 264.557 229.722 263.672 229.688C262.787 229.653 261.902 229.766 261.07 230.02C260.237 230.273 259.472 230.663 258.819 231.165C258.166 231.668 257.637 232.274 257.264 232.949C255.92 235.771 257.04 239.251 260.401 240.474V240.568ZM341.954 266.907C343.747 267.659 345.875 267.095 346.771 265.402C347.556 263.897 346.995 262.109 344.979 261.263C344.534 261.077 344.048 260.972 343.551 260.953C343.055 260.934 342.559 261.002 342.096 261.152C341.632 261.302 341.211 261.532 340.859 261.826C340.507 262.121 340.231 262.473 340.05 262.862C339.49 264.461 340.274 266.06 341.954 266.907ZM241.133 156.66L241.357 157.601C241.581 158.165 242.029 158.824 242.701 159.294L244.269 160.235L245.726 161.364C246.846 162.022 247.966 162.775 248.862 163.527L251.775 165.409C252.447 165.691 253.007 166.161 253.679 166.537L255.696 167.666C256.812 168.317 257.971 168.914 259.169 169.453C260.045 169.853 261.041 170.03 262.036 169.963C263.03 169.896 263.98 169.588 264.77 169.077C265.778 168.419 266.114 168.042 266.674 167.196C267.122 166.631 267.234 165.973 267.458 165.314C267.64 164.825 267.752 164.32 267.794 163.809V159.2L267.906 157.977V154.121C267.906 152.992 267.906 151.957 267.682 150.828L267.57 149.323C267.458 148.759 267.346 148.194 267.01 147.63C266.674 146.877 266.114 146.219 265.33 145.655C264.573 145.08 263.643 144.689 262.641 144.526C261.521 144.432 260.513 144.526 259.505 144.808C258.496 145.09 257.6 145.56 256.592 145.937L254.576 147.066L253.455 147.63L252.447 148.194L250.095 149.135L248.414 149.699C247.827 149.905 247.264 150.157 246.734 150.452L246.51 150.64L245.726 151.016L245.166 151.393L244.045 152.051L242.701 153.18L242.365 153.556C242.015 153.919 241.75 154.334 241.581 154.779V154.591L241.133 155.814V156.754V156.66ZM258.72 161.081L256.592 159.765C254.869 158.616 253.188 157.424 251.551 156.19L251.663 156.096L253.231 155.532L255.024 154.873L257.712 153.65L259.281 152.71L259.729 152.615V156.284L259.841 157.695V161.74L258.72 161.081V161.081Z" fill="#03669A"/>
</g>
<defs>
<clipPath id="clip0_28_584">
<rect width="300" height="274" fill="white"/>
</clipPath>
</defs>
</svg>

<svg xmlns="http://www.w3.org/2000/svg" width="300" height="274" fill="none"><g fill="#03669A" clip-path="url(#a)"><path d="M241.805 247.905a2.908 2.908 0 0 0 1.896.081c.307-.092.589-.233.831-.417.241-.183.438-.404.578-.652a1.778 1.778 0 0 0 .096-1.592 2.053 2.053 0 0 0-.496-.697 2.503 2.503 0 0 0-.777-.485c-1.12-.377-2.688-.095-3.36 1.034-.225 1.035.224 2.164 1.232 2.822v-.094ZM97.294 161.364c1.12.47 2.688.094 3.36-.941.449-.941 0-2.258-1.232-2.822-1.12-.376-2.688-.094-3.36 1.035-.449.94 0 2.257 1.232 2.822v-.094Zm99.925-8.937c.584.176 1.225.16 1.796-.043.57-.204 1.029-.581 1.283-1.056a1.765 1.765 0 0 0 .089-1.506c-.196-.494-.608-.907-1.151-1.157-1.121-.471-2.689-.094-3.361.94-.448.941 0 2.258 1.344 2.822Zm-41.561 64.06c1.121.376 2.577.094 3.249-1.035.448-.94 0-2.257-1.232-2.822-1.12-.376-2.689 0-3.361 1.129-.448.941 0 1.975 1.344 2.728Zm-56.236-11.006c1.12.376 2.689 0 3.361-1.035.448-.94 0-2.257-1.232-2.822-1.121-.376-2.689 0-3.361 1.035-.224 1.035.112 2.352 1.232 2.822ZM9.915 130.228a2.92 2.92 0 0 0 1.896.081c.62-.186 1.127-.57 1.409-1.069a1.78 1.78 0 0 0 .096-1.592c-.22-.52-.678-.946-1.273-1.183a2.92 2.92 0 0 0-1.895-.081c-.62.185-1.127.57-1.41 1.069a1.78 1.78 0 0 0-.096 1.592c.221.52.679.946 1.273 1.183ZM196.547 53.94c1.12.376 2.689 0 3.361-1.035.448-.94 0-2.258-1.344-2.822-1.121-.377-2.577 0-3.249 1.129-.448.94.224 2.069 1.232 2.727ZM32.096 88.18c.672.282 1.12.188 1.904-.094.784-.376 1.232-.753 1.68-1.505 1.793-2.916 3.697-5.456 5.602-8.466.672-1.223.448-2.822-.896-3.293-1.345-.47-2.801.188-3.585 1.6-1.905 2.916-3.585 5.644-5.601 8.466l-.224.188c-.673 1.317 0 2.728 1.12 3.104Z"/><path d="m29.071 80.937 5.825 2.257c.897.282 1.793.659 2.801 1.223l2.128 1.035c.752.24 1.499.492 2.24.752.561 0 1.233-.282 1.793-.752.56-.47.672-.94.56-1.6 0-.47-.224-.94-.784-1.41s-1.232-.753-1.792-1.13l-1.569-.658c-.896-.282-1.68-.94-2.576-1.222l-6.05-2.258c-1.12-.47-2.576-.094-3.248.94-1.12.941-.672 2.352.672 2.823ZM22.91 19.793c.336.094.896.094.896-.094.112-.188.112-.658 0-.753l-1.008.095c0 .188 0 .658.224.752h-.112Zm9.634 21.353c.224.094.784.094.896 0 0-.282 0-.752-.224-.846-.224 0-.672 0-.784.188v.658h.112Zm-61.39-5.738c.225.094.785 0 .897-.094l-.112-.752-.896.094.112.752Zm.673 27.091c.224.094.784 0 .896-.094 0-.188 0-.658-.224-.752l-.784.094c-.112.188-.112.658 0 .752h.112Zm258.775 169.039c1.569.658 3.361.188 4.033-1.129.784-1.317.224-2.822-1.344-3.481-1.456-.564-3.361-.188-4.033 1.129-.784 1.317-.224 2.822 1.344 3.481ZM12.604 27.507c.672.188 1.344 0 1.68-.565.336-.564 0-1.129-.56-1.317a1.395 1.395 0 0 0-1.68.47c-.337.565.111 1.224.56 1.412Zm122.33 65.752c.56.282 1.12 0 1.568-.47.224-.564 0-1.129-.672-1.411-.672-.282-1.344 0-1.568.564-.336.565 0 1.035.56 1.317h.112Zm125.467 147.309a7.91 7.91 0 0 0 5.184.163 7.039 7.039 0 0 0 2.245-1.174 5.779 5.779 0 0 0 1.533-1.811c1.568-2.822.448-6.114-3.137-7.525a7.742 7.742 0 0 0-2.554-.533 7.872 7.872 0 0 0-2.602.332 7.06 7.06 0 0 0-2.251 1.145 5.82 5.82 0 0 0-1.555 1.784c-1.344 2.822-.224 6.302 3.137 7.525v.094Zm81.553 26.339c1.793.752 3.921.188 4.817-1.505.785-1.505.224-3.293-1.792-4.139a4.214 4.214 0 0 0-2.883-.111c-.464.15-.885.38-1.237.674a3.025 3.025 0 0 0-.809 1.036c-.56 1.599.224 3.198 1.904 4.045ZM241.133 156.66l.224.941a3.863 3.863 0 0 0 1.344 1.693l1.568.941 1.457 1.129c1.12.658 2.24 1.411 3.136 2.163l2.913 1.882c.672.282 1.232.752 1.904 1.128l2.017 1.129a37.113 37.113 0 0 0 3.473 1.787 5.97 5.97 0 0 0 2.867.51 5.763 5.763 0 0 0 2.734-.886c1.008-.658 1.344-1.035 1.904-1.881.448-.565.56-1.223.784-1.882a5.63 5.63 0 0 0 .336-1.505V159.2l.112-1.223v-3.856c0-1.129 0-2.164-.224-3.293l-.112-1.505c-.112-.564-.224-1.129-.56-1.693-.336-.753-.896-1.411-1.68-1.975a6.06 6.06 0 0 0-2.689-1.129 8.663 8.663 0 0 0-3.136.282c-1.009.282-1.905.752-2.913 1.129l-2.016 1.129-1.121.564-1.008.564-2.352.941-1.681.564c-.587.206-1.15.458-1.68.753l-.224.188-.784.376-.56.377-1.121.658-1.344 1.129-.336.376c-.35.363-.615.778-.784 1.223v-.188l-.448 1.223v.94-.094Zm17.587 4.421-2.128-1.316a106.928 106.928 0 0 1-5.041-3.575l.112-.094 1.568-.564 1.793-.659 2.688-1.223 1.569-.94.448-.095v3.669l.112 1.411v4.045l-1.121-.659Z"/></g><defs><clipPath id="a"><path fill="#fff" d="M0 0h300v274H0z"/></clipPath></defs></svg>
